optimized/20/solid/truck.svg

<svg xmlns="http://www.w3.org/2000/svg" viewBox="0 0 20 20">
  <path d="M6.5 3C5.4488 3 4.40669 3.03958 3.37512 3.11734C2.58952 3.17656 2 3.83452 2 4.60628V10.5H11V4.60628C11 3.83452 10.4105 3.17656 9.62488 3.11734C8.59331 3.03958 7.5512 3 6.5 3Z"/>
  <path d="M2 12V14.5C2 15.3284 2.67157 16 3.5 16H3.54148C3.77952 14.5811 5.0135 13.5 6.5 13.5C7.9865 13.5 9.22048 14.5811 9.45852 16H10.25C10.6642 16 11 15.6642 11 15.25V12H2Z"/>
  <path d="M6.5 18C7.32843 18 8 17.3284 8 16.5C8 15.6716 7.32843 15 6.5 15C5.67157 15 5 15.6716 5 16.5C5 17.3284 5.67157 18 6.5 18Z"/>
  <path d="M13.25 5C12.8358 5 12.5 5.33579 12.5 5.75V14.2639C13.0308 13.7889 13.7316 13.5 14.5 13.5C15.8814 13.5 17.0447 14.4336 17.3933 15.7043C17.7639 15.4289 18.0037 14.9852 17.9883 14.4772C17.8967 11.4639 17.2717 8.58345 16.204 5.92808C15.9743 5.35688 15.4206 5 14.8229 5H13.25Z"/>
  <path d="M14.5 18C15.3284 18 16 17.3284 16 16.5C16 15.6716 15.3284 15 14.5 15C13.6716 15 13 15.6716 13 16.5C13 17.3284 13.6716 18 14.5 18Z"/>
</svg>

<svg xmlns="http://www.w3.org/2000/svg" viewBox="0 0 20 20" fill="currentColor" aria-hidden="true">
  <path d="M6.5 3c-1.051 0-2.093.04-3.125.117A1.49 1.49 0 002 4.607V10.5h9V4.606c0-.771-.59-1.43-1.375-1.489A41.568 41.568 0 006.5 3zM2 12v2.5A1.5 1.5 0 003.5 16h.041a3 3 0 015.918 0h.791a.75.75 0 00.75-.75V12H2z"/>
  <path d="M6.5 18a1.5 1.5 0 100-3 1.5 1.5 0 000 3zM13.25 5a.75.75 0 00-.75.75v8.514a3.001 3.001 0 014.893 1.44c.37-.275.61-.719.595-1.227a24.905 24.905 0 00-1.784-8.549A1.486 1.486 0 0014.823 5H13.25zM14.5 18a1.5 1.5 0 100-3 1.5 1.5 0 000 3z"/>
</svg>
